X: 24267
T: Lorient Express
R: hornpipe
M: 4/4
K: Aminor
M:3/4
|:"Am" Ae-ed e2|"G" dc Bc dB|"F" Ae-ed e2|"G"dc Bc d2|
"Am" Ae-ed e2|"G" dc Bc dB|"F" Ae-ed e2|"G"dc Bc A2:|
M:4/4
"Am"ABcA "F" F3c|"E" BABc "Am" AE-E2|"Am" ABcA "Dm" d3c|"E" BcBc "Am" A4|
"Am"ABcA "F" F3c|"E" BABc "Am" AE-E2|"Am" ABcA "Dm" d3c|"E" BABc BABc||

